!!!OTL: 1437. Der Jaeger und das Maedchen.
!!!ARE: Europa, Mitteleuropa, Deutschland
!!!SCT: E1437
!!!TXL: @@DE
!!!YEM: Copyright 1995, estate of Helmut Schaffrath.
**kern	**text
*ICvox	*
*M3/8	*
*k[b-]	*
*F:	*
=1	=1
!LO:TX:a:t=Hastig.	!
!LO:TX:a:t=Aus verſchiedenen Gegenden Nord- und Süddeutſchlands.	!
{8f	Es
8f	wollt
8a	ein
=2	=2
4cc	Jä-
8ff	-ger
=3	=3
8cc	ja-
8a	-gen
8r}	.
=4	=4
{8cc	wol
8cc	in
8cc	das
=5	=5
8.ddL	Tan-
16ccJ	.
8b-	-nen-
=6	=6
4a	-holʒ.
8r}	.
=7	=7
{8a	Was
8a	begegnt
8a	ihm
=8	=8
4g	auf
8cc	dem
=9	=9
8a	We-
8f	-ge?
8r}	.
=10	=10
{8a	ein
8a	Mädchen
8a	und
=11	=11
8.ccL	die
16b-J	.
8g	war
=12	=12
4f	ſtolʒ.
8r}	.
==	==
!!!AGN: Staende -, Jaeger - Lied, Liebe
!!!ONB: ESAC (Essen Associative Code) Database: ERK3
!!!AMT: simple triple
!!!AIN: vox
!!!EED: Helmut Schaffrath
!!!EEV: 1.0
!!!GTL: Staendelieder (Berufslieder). 2. Jaegerlieder und Jaegerballaden.
!!!URL-scan: https://rosdok.uni-rostock.de/mcrviewer/recordIdentifier/rosdok_ppn745177999/iview2/phys_0302.iview2?x=-128.77276441889285&y=1430.4512382755056&scale=0.5870222003877487&rotation=0&layout=singlePageLayout
!!!ENC: Anna Maria Matuszewska
!!!EEV: 2024/12/31
*-	*-
